; generated by PrusaSlicer 2.9.4 on 2026-04-21 at 07:58:54 UTC

; 

; external perimeters extrusion width = 0.45mm
; perimeters extrusion width = 0.45mm
; infill extrusion width = 0.45mm
; solid infill extrusion width = 0.45mm
; top infill extrusion width = 0.40mm
; support material extrusion width = 0.38mm
; first layer extrusion width = 0.42mm

M201 X500 Y500 Z100 E5000 ; sets maximum accelerations, mm/sec^2
M203 X500 Y500 Z10 E60 ; sets maximum feedrates, mm / sec
M204 S500 T1000 ; sets acceleration (S) and retract acceleration (R), mm/sec^2
M205 X8.00 Y8.00 Z0.40 E5.00 ; sets the jerk limits, mm/sec
M205 S0 T0 ; sets the minimum extruding and travel feed rate, mm/sec
;TYPE:Custom
G90 ; use absolute coordinates
M83 ; extruder relative mode
M104 S150 ; set temporary nozzle temp to prevent oozing during homing and auto bed leveling
M140 S55 ; set final bed temp
M190 S55 ; wait for bed temp to stabilize
G28 ; home all axis
G29 ; auto bed levelling
G1 Z50 F240
G1 X2.0 Y10 F3000
M104 S210 ; set final nozzle temp
M109 S210 ; wait for nozzle temp to stabilize
G1 Z0.28 F240
G92 E0
G1 X2.0 Y140 E10 F1500 ; prime the nozzle
G1 X2.3 Y140 F5000
G92 E0
G1 X2.3 Y10 E10 F1200 ; prime the nozzle
G92 E0
G21 ; set units to millimeters
G90 ; use absolute coordinates
M83 ; use relative distances for extrusion
; Filament gcode
M107
;LAYER_CHANGE
;Z:0.2
;HEIGHT:0.2
G1 E-6 F3600
G1 Z.2 F9000
G1 X144.318 Y144.318
G1 E6 F2400
M204 S500
;TYPE:Perimeter
;WIDTH:0.419999
G1 F1200
G1 X165.682 Y144.318 E.66985
G1 X165.682 Y165.682 E.66985
G1 X144.318 Y165.682 E.66985
G1 X144.318 Y144.378 E.66797
G1 X143.941 Y143.941 F9000
G1 F1200
G1 X166.059 Y143.941 E.69349
G1 X166.059 Y166.059 E.69349
G1 X143.941 Y166.059 E.69349
G1 X143.941 Y144.001 E.69161
G1 X143.564 Y143.564 F9000
G1 F1200
G1 X166.436 Y143.564 E.71713
G1 X166.436 Y166.436 E.71713
G1 X143.564 Y166.436 E.71713
G1 X143.564 Y143.624 E.71525
G1 X143.187 Y143.187 F9000
G1 F1200
G1 X166.813 Y143.187 E.74078
G1 X166.813 Y166.813 E.74078
G1 X143.187 Y166.813 E.74078
G1 X143.187 Y143.247 E.73889
G1 X142.81 Y142.81 F9000
;TYPE:External perimeter
G1 F1200
G1 X167.19 Y142.81 E.76442
G1 X167.19 Y167.19 E.76442
G1 X142.81 Y167.19 E.76442
G1 X142.81 Y142.87 E.76254
G1 E-4.2 F3600
;WIPE_START
G1 F7200
G1 X142.81 Y142.81 E-.0285
G1 X146.539 Y142.81 E-1.7715
;WIPE_END
G1 X165.569 Y145.198 F9000
G1 E6 F2400
;TYPE:Solid infill
;WIDTH:0.421979
G1 F1200
G1 X164.972 Y144.601 E.02661
G1 X164.436 Y144.601 E.01689
G1 X165.399 Y145.564 E.04293
G1 X165.399 Y146.1 E.01689
G1 X163.9 Y144.601 E.06682
G1 X163.364 Y144.601 E.01689
G1 X165.399 Y146.636 E.09071
G1 X165.399 Y147.172 E.01689
G1 X162.827 Y144.601 E.11462
G1 X162.291 Y144.601 E.01689
G1 X165.399 Y147.709 E.13854
G1 X165.399 Y148.245 E.01689
G1 X161.755 Y144.601 E.16243
G1 X161.219 Y144.601 E.01689
G1 X165.399 Y148.781 E.18632
G1 X165.399 Y149.317 E.01689
G1 X160.683 Y144.601 E.21021
G1 X160.147 Y144.601 E.01689
G1 X165.399 Y149.853 E.2341
G1 X165.399 Y150.389 E.01689
G1 X159.611 Y144.601 E.258
G1 X159.075 Y144.601 E.01689
G1 X165.399 Y150.925 E.28189
G1 X165.399 Y151.461 E.01689
G1 X158.539 Y144.601 E.30578
G1 X158.003 Y144.601 E.01689
G1 X165.399 Y151.997 E.32967
G1 X165.399 Y152.533 E.01689
G1 X157.467 Y144.601 E.35356
G1 X156.931 Y144.601 E.01689
G1 X165.399 Y153.069 E.37746
G1 X165.399 Y153.605 E.01689
G1 X156.395 Y144.601 E.40135
G1 X155.859 Y144.601 E.01689
G1 X165.399 Y154.141 E.42524
G1 X165.399 Y154.677 E.01689
G1 X155.322 Y144.601 E.44915
G1 X154.786 Y144.601 E.01689
G1 X165.399 Y155.214 E.47307
G1 X165.399 Y155.75 E.01689
G1 X154.25 Y144.601 E.49696
G1 X153.714 Y144.601 E.01689
G1 X165.399 Y156.286 E.52085
G1 X165.399 Y156.822 E.01689
G1 X153.178 Y144.601 E.54474
G1 X152.642 Y144.601 E.01689
G1 X165.399 Y157.358 E.56864
G1 X165.399 Y157.894 E.01689
G1 X152.106 Y144.601 E.59253
G1 X151.57 Y144.601 E.01689
G1 X165.399 Y158.43 E.61642
G1 X165.399 Y158.966 E.01689
G1 X151.034 Y144.601 E.64031
G1 X150.498 Y144.601 E.01689
G1 X165.399 Y159.502 E.6642
G1 X165.399 Y160.038 E.01689
G1 X149.962 Y144.601 E.6881
G1 X149.426 Y144.601 E.01689
G1 X165.399 Y160.574 E.71199
G1 X165.399 Y161.11 E.01689
G1 X148.89 Y144.601 E.73588
G1 X148.354 Y144.601 E.01689
G1 X165.399 Y161.646 E.75977
G1 X165.399 Y162.182 E.01689
G1 X147.818 Y144.601 E.78366
G1 X147.281 Y144.601 E.01693
G1 X165.399 Y162.719 E.8076
G1 X165.399 Y163.255 E.01689
G1 X146.745 Y144.601 E.83149
G1 X146.209 Y144.601 E.01689
G1 X165.399 Y163.791 E.85538
G1 X165.399 Y164.327 E.01689
G1 X145.673 Y144.601 E.87928
G1 X145.137 Y144.601 E.01689
G1 X165.399 Y164.863 E.90317
G1 X165.399 Y165.399 E.01689
G1 X144.601 Y144.601 E.92706
G1 X144.601 Y145.137 E.01689
G1 X164.863 Y165.399 E.90317
G1 X164.327 Y165.399 E.01689
G1 X144.601 Y145.673 E.87928
G1 X144.601 Y146.209 E.01689
G1 X163.791 Y165.399 E.85538
G1 X163.255 Y165.399 E.01689
G1 X144.601 Y146.745 E.83149
G1 X144.601 Y147.281 E.01689
G1 X162.718 Y165.399 E.80758
G1 X162.182 Y165.399 E.01689
G1 X144.601 Y147.818 E.78366
G1 X144.601 Y148.354 E.01689
G1 X161.646 Y165.399 E.75977
G1 X161.11 Y165.399 E.01689
G1 X144.601 Y148.89 E.73588
G1 X144.601 Y149.426 E.01689
G1 X160.574 Y165.399 E.71199
G1 X160.038 Y165.399 E.01689
G1 X144.601 Y149.962 E.6881
G1 X144.601 Y150.498 E.01689
G1 X159.502 Y165.399 E.6642
G1 X158.966 Y165.399 E.01689
G1 X144.601 Y151.034 E.64031
G1 X144.601 Y151.57 E.01689
G1 X158.43 Y165.399 E.61642
G1 X157.894 Y165.399 E.01689
G1 X144.601 Y152.106 E.59253
G1 X144.601 Y152.642 E.01689
G1 X157.358 Y165.399 E.56864
G1 X156.822 Y165.399 E.01689
G1 X144.601 Y153.178 E.54474
G1 X144.601 Y153.714 E.01689
G1 X156.286 Y165.399 E.52085
G1 X155.75 Y165.399 E.01689
G1 X144.601 Y154.25 E.49696
G1 X144.601 Y154.786 E.01689
G1 X155.213 Y165.399 E.47305
G1 X154.677 Y165.399 E.01689
G1 X144.601 Y155.323 E.44913
G1 X144.601 Y155.859 E.01689
G1 X154.141 Y165.399 E.42524
G1 X153.605 Y165.399 E.01689
G1 X144.601 Y156.395 E.40135
G1 X144.601 Y156.931 E.01689
G1 X153.069 Y165.399 E.37746
G1 X152.533 Y165.399 E.01689
G1 X144.601 Y157.467 E.35356
G1 X144.601 Y158.003 E.01689
G1 X151.997 Y165.399 E.32967
G1 X151.461 Y165.399 E.01689
G1 X144.601 Y158.539 E.30578
G1 X144.601 Y159.075 E.01689
G1 X150.925 Y165.399 E.28189
G1 X150.389 Y165.399 E.01689
G1 X144.601 Y159.611 E.258
G1 X144.601 Y160.147 E.01689
G1 X149.853 Y165.399 E.2341
G1 X149.317 Y165.399 E.01689
G1 X144.601 Y160.683 E.21021
G1 X144.601 Y161.219 E.01689
G1 X148.781 Y165.399 E.18632
G1 X148.245 Y165.399 E.01689
G1 X144.601 Y161.755 E.16243
G1 X144.601 Y162.291 E.01689
G1 X147.709 Y165.399 E.13854
G1 X147.172 Y165.399 E.01693
G1 X144.601 Y162.828 E.1146
G1 X144.601 Y163.364 E.01689
G1 X146.636 Y165.399 E.09071
G1 X146.1 Y165.399 E.01689
G1 X144.601 Y163.9 E.06682
G1 X144.601 Y164.436 E.01689
G1 X145.564 Y165.399 E.04293
G1 X145.028 Y165.399 E.01689
G1 X144.431 Y164.802 E.02661
M106 S255
;LAYER_CHANGE
;Z:0.3
;HEIGHT:0.1
;BEFORE_LAYER_CHANGE
G92 E0
;0.3


G1 E-4.2 F3600
;WIPE_START
G1 F7200
G1 X145.028 Y165.399 E-.40104
G1 X145.564 Y165.399 E-.2546
G1 X144.601 Y164.436 E-.6469
G1 X144.601 Y163.9 E-.2546
G1 X144.963 Y164.261 E-.24286
;WIPE_END
G1 Z.3 F9000
;AFTER_LAYER_CHANGE
;0.3
G1 X144.439 Y165.561
G1 E6 F2400
;TYPE:Perimeter
;WIDTH:0.449999
G1 X144.439 Y144.439 E.37632
G1 X165.561 Y144.439 E.37632
G1 X165.561 Y165.561 E.37632
G1 X144.499 Y165.561 E.37525
G1 X144.011 Y165.989 F9000
G1 F2400
G1 X144.011 Y144.011 E.39157
G1 X165.989 Y144.011 E.39157
G1 X165.989 Y165.989 E.39157
G1 X144.071 Y165.989 E.3905
G1 X143.582 Y166.418 F9000
G1 F2400
G1 X143.582 Y143.582 E.40686
G1 X166.418 Y143.582 E.40686
G1 X166.418 Y166.418 E.40686
G1 X143.642 Y166.418 E.40579
G1 X143.154 Y166.846 F9000
G1 F2400
G1 X143.154 Y143.154 E.42211
G1 X166.846 Y143.154 E.42211
G1 X166.846 Y166.846 E.42211
G1 X143.214 Y166.846 E.42104
G1 X142.725 Y167.275 F9000
;TYPE:External perimeter
G1 F1500
G1 X142.725 Y142.725 E.4374
G1 X167.275 Y142.725 E.4374
G1 X167.275 Y167.275 E.4374
G1 X142.785 Y167.275 E.43633
G1 E-4.2 F3600
;WIPE_START
G1 F7200
G1 X142.725 Y167.275 E-.0285
G1 X142.725 Y163.546 E-1.7715
;WIPE_END
G1 X144.877 Y144.795 F9000
G1 E6 F2400
;TYPE:Solid infill
;WIDTH:0.553972
G1 X144.83 Y144.748 E.00147
G1 X144.765 Y144.765 E.00149
G1 X144.748 Y144.83 E.00149
G1 X144.795 Y144.877 E.00147
G1 X144.86 Y144.86 E.00149
;WIDTH:0.449999
G1 X144.761 Y145.544 E.01231
G1 X145.544 Y144.761 E.01973
G1 X146.15 Y144.761 E.0108
G1 X144.761 Y146.15 E.035
G1 X144.761 Y146.756 E.0108
G1 X146.756 Y144.761 E.05027
G1 X147.362 Y144.761 E.0108
G1 X144.761 Y147.362 E.06554
G1 X144.761 Y147.968 E.0108
G1 X147.968 Y144.761 E.08081
G1 X148.574 Y144.761 E.0108
G1 X144.761 Y148.574 E.09607
G1 X144.761 Y149.18 E.0108
G1 X149.18 Y144.761 E.11134
G1 X149.786 Y144.761 E.0108
G1 X144.761 Y149.786 E.12661
G1 X144.761 Y150.392 E.0108
G1 X150.392 Y144.761 E.14188
G1 X150.999 Y144.761 E.01081
G1 X144.761 Y150.999 E.15718
G1 X144.761 Y151.605 E.0108
G1 X151.605 Y144.761 E.17244
G1 X152.211 Y144.761 E.0108
G1 X144.761 Y152.211 E.18771
G1 X144.761 Y152.817 E.0108
G1 X152.817 Y144.761 E.20298
G1 X153.423 Y144.761 E.0108
G1 X144.761 Y153.423 E.21825
G1 X144.761 Y154.029 E.0108
G1 X154.029 Y144.761 E.23352
G1 X154.635 Y144.761 E.0108
G1 X144.761 Y154.635 E.24879
G1 X144.761 Y155.241 E.0108
G1 X155.241 Y144.761 E.26406
G1 X155.847 Y144.761 E.0108
G1 X144.761 Y155.847 E.27933
G1 X144.761 Y156.453 E.0108
G1 X156.453 Y144.761 E.2946
G1 X157.059 Y144.761 E.0108
G1 X144.761 Y157.059 E.30987
G1 X144.761 Y157.665 E.0108
G1 X157.665 Y144.761 E.32513
G1 X158.271 Y144.761 E.0108
G1 X144.761 Y158.271 E.3404
G1 X144.761 Y158.877 E.0108
G1 X158.877 Y144.761 E.35567
G1 X159.483 Y144.761 E.0108
G1 X144.761 Y159.483 E.37094
G1 X144.761 Y160.089 E.0108
G1 X160.089 Y144.761 E.38621
G1 X160.695 Y144.761 E.0108
G1 X144.761 Y160.695 E.40148
G1 X144.761 Y161.301 E.0108
G1 X161.301 Y144.761 E.41675
G1 X161.907 Y144.761 E.0108
G1 X144.761 Y161.907 E.43202
G1 X144.761 Y162.513 E.0108
G1 X162.513 Y144.761 E.44729
G1 X163.119 Y144.761 E.0108
G1 X144.761 Y163.119 E.46256
G1 X144.761 Y163.725 E.0108
G1 X163.725 Y144.761 E.47783
G1 X164.332 Y144.761 E.01081
G1 X144.761 Y164.332 E.49312
G1 X144.702 Y165.358 F9000
;WIDTH:0.36146
G1 F2400
G1 X144.661 Y165.369 E.0006
G1 X144.642 Y165.298 E.00104
G1 X144.713 Y165.317 E.00104
;WIDTH:0.40573
G1 X144.737 Y165.127 E.00306
;WIDTH:0.449999
G1 X144.761 Y164.938 E.00339
G1 X164.938 Y144.761 E.50839
G1 X165.148 Y144.731 E.00378
;WIDTH:0.40573
G1 X165.358 Y144.702 E.00339
;WIDTH:0.36146
G1 X165.317 Y144.713 E.0006
G1 X165.298 Y144.642 E.00104
G1 X165.369 Y144.661 E.00104
;WIDTH:0.449999
G1 X165.239 Y145.065 E.00756
G1 X145.065 Y165.239 E.50831
G1 X145.671 Y165.239 E.0108
G1 X165.239 Y145.671 E.49304
G1 X165.239 Y146.277 E.0108
G1 X146.277 Y165.239 E.47778
G1 X146.883 Y165.239 E.0108
G1 X165.239 Y146.883 E.46251
G1 X165.239 Y147.489 E.0108
G1 X147.489 Y165.239 E.44724
G1 X148.095 Y165.239 E.0108
G1 X165.239 Y148.095 E.43197
G1 X165.239 Y148.701 E.0108
G1 X148.701 Y165.239 E.4167
G1 X149.307 Y165.239 E.0108
G1 X165.239 Y149.307 E.40143
G1 X165.239 Y149.913 E.0108
G1 X149.913 Y165.239 E.38616
G1 X150.519 Y165.239 E.0108
G1 X165.239 Y150.519 E.37089
G1 X165.239 Y151.125 E.0108
G1 X151.125 Y165.239 E.35562
G1 X151.731 Y165.239 E.0108
G1 X165.239 Y151.731 E.34035
G1 X165.239 Y152.337 E.0108
G1 X152.337 Y165.239 E.32508
G1 X152.943 Y165.239 E.0108
G1 X165.239 Y152.943 E.30982
G1 X165.239 Y153.549 E.0108
G1 X153.549 Y165.239 E.29455
G1 X154.155 Y165.239 E.0108
G1 X165.239 Y154.155 E.27928
G1 X165.239 Y154.761 E.0108
G1 X154.761 Y165.239 E.26401
G1 X155.367 Y165.239 E.0108
G1 X165.239 Y155.368 E.24873
G1 X165.239 Y155.974 E.0108
G1 X155.974 Y165.239 E.23345
G1 X156.58 Y165.239 E.0108
G1 X165.239 Y156.58 E.21818
G1 X165.239 Y157.186 E.0108
G1 X157.186 Y165.239 E.20291
G1 X157.792 Y165.239 E.0108
G1 X165.239 Y157.792 E.18764
G1 X165.239 Y158.398 E.0108
G1 X158.398 Y165.239 E.17237
G1 X159.004 Y165.239 E.0108
G1 X165.239 Y159.004 E.1571
G1 X165.239 Y159.61 E.0108
G1 X159.61 Y165.239 E.14183
G1 X160.216 Y165.239 E.0108
G1 X165.239 Y160.216 E.12656
G1 X165.239 Y160.822 E.0108
G1 X160.822 Y165.239 E.11129
G1 X161.428 Y165.239 E.0108
G1 X165.239 Y161.428 E.09602
G1 X165.239 Y162.034 E.0108
G1 X162.034 Y165.239 E.08075
G1 X162.64 Y165.239 E.0108
G1 X165.239 Y162.64 E.06549
G1 X165.239 Y163.246 E.0108
G1 X163.246 Y165.239 E.05022
G1 E-4.2 F3600
;WIPE_START
G1 F7200
G1 X165.239 Y163.246 E-1.3388
G1 X165.239 Y162.64 E-.28785
G1 X164.981 Y162.898 E-.17335
;WIPE_END
G1 X165.088 Y164.004 F9000
G1 E6 F2400
G1 X163.852 Y165.239 E.03113
G1 X165.239 Y165.239 E.02471
G1 X165.239 Y163.852 E.02471
;LAYER_CHANGE
;Z:0.4
;HEIGHT:0.1
;BEFORE_LAYER_CHANGE
G92 E0
;0.4


G1 E-4.2 F3600
;WIPE_START
G1 F7200
G1 X165.239 Y165.239 E-.65883
G1 X163.852 Y165.239 E-.65883
G1 X164.57 Y164.521 E-.48234
;WIPE_END
G1 Z.4 F9000
;AFTER_LAYER_CHANGE
;0.4
G1 X165.561 Y165.561
G1 E6 F2400
;TYPE:Perimeter
G1 X144.439 Y165.561 E.37632
G1 X144.439 Y144.439 E.37632
G1 X165.561 Y144.439 E.37632
G1 X165.561 Y165.501 E.37525
G1 X165.989 Y165.989 F9000
G1 F2400
G1 X144.011 Y165.989 E.39157
G1 X144.011 Y144.011 E.39157
G1 X165.989 Y144.011 E.39157
G1 X165.989 Y165.929 E.3905
G1 X166.418 Y166.418 F9000
G1 F2400
G1 X143.582 Y166.418 E.40686
G1 X143.582 Y143.582 E.40686
G1 X166.418 Y143.582 E.40686
G1 X166.418 Y166.358 E.40579
G1 X166.846 Y166.846 F9000
G1 F2400
G1 X143.154 Y166.846 E.42211
G1 X143.154 Y143.154 E.42211
G1 X166.846 Y143.154 E.42211
G1 X166.846 Y166.786 E.42104
G1 X167.275 Y167.275 F9000
;TYPE:External perimeter
G1 F1500
G1 X142.725 Y167.275 E.4374
G1 X142.725 Y142.725 E.4374
G1 X167.275 Y142.725 E.4374
G1 X167.275 Y167.215 E.43633
G1 E-4.2 F3600
;WIPE_START
G1 F7200
G1 X167.275 Y167.275 E-.0285
G1 X163.546 Y167.275 E-1.7715
;WIPE_END
G1 X144.795 Y165.123 F9000
G1 E6 F2400
;TYPE:Solid infill
;WIDTH:0.553972
G1 X144.748 Y165.17 E.00147
G1 X144.765 Y165.235 E.00149
G1 X144.83 Y165.252 E.00149
G1 X144.877 Y165.205 E.00147
G1 X144.86 Y165.14 E.00149
;WIDTH:0.449999
G1 X144.761 Y164.456 E.01231
G1 X145.621 Y165.31 E.02159
;WIDTH:0.40573
G1 X145.698 Y165.381 E.00167
;WIDTH:0.36146
G1 X145.679 Y165.452 E.00104
G1 X145.75 Y165.433 E.00104
G1 X145.739 Y165.392 E.0006
;WIDTH:0.449999
G1 X146.15 Y165.239 E.00781
G1 X144.761 Y163.85 E.035
G1 X144.761 Y163.244 E.0108
G1 X146.756 Y165.239 E.05027
G1 X147.362 Y165.239 E.0108
G1 X144.761 Y162.638 E.06554
G1 X144.761 Y162.032 E.0108
G1 X147.968 Y165.239 E.08081
G1 X148.574 Y165.239 E.0108
G1 X144.761 Y161.426 E.09607
G1 X144.761 Y160.82 E.0108
G1 X149.18 Y165.239 E.11134
G1 X149.786 Y165.239 E.0108
G1 X144.761 Y160.214 E.12661
G1 X144.761 Y159.608 E.0108
G1 X150.392 Y165.239 E.14188
G1 X150.999 Y165.239 E.01081
G1 X144.761 Y159.001 E.15718
G1 X144.761 Y158.395 E.0108
G1 X151.605 Y165.239 E.17244
G1 X152.211 Y165.239 E.0108
G1 X144.761 Y157.789 E.18771
G1 X144.761 Y157.183 E.0108
G1 X152.817 Y165.239 E.20298
G1 X153.423 Y165.239 E.0108
G1 X144.761 Y156.577 E.21825
G1 X144.761 Y155.971 E.0108
G1 X154.029 Y165.239 E.23352
G1 X154.635 Y165.239 E.0108
G1 X144.761 Y155.365 E.24879
G1 X144.761 Y154.759 E.0108
G1 X155.241 Y165.239 E.26406
G1 X155.847 Y165.239 E.0108
G1 X144.761 Y154.153 E.27933
G1 X144.761 Y153.547 E.0108
G1 X156.453 Y165.239 E.2946
G1 X157.059 Y165.239 E.0108
G1 X144.761 Y152.941 E.30987
G1 X144.761 Y152.335 E.0108
G1 X157.665 Y165.239 E.32513
G1 X158.271 Y165.239 E.0108
G1 X144.761 Y151.729 E.3404
G1 X144.761 Y151.123 E.0108
G1 X158.877 Y165.239 E.35567
G1 X159.483 Y165.239 E.0108
G1 X144.761 Y150.517 E.37094
G1 X144.761 Y149.911 E.0108
G1 X160.089 Y165.239 E.38621
G1 X160.695 Y165.239 E.0108
G1 X144.761 Y149.305 E.40148
G1 X144.761 Y148.699 E.0108
G1 X161.301 Y165.239 E.41675
G1 X161.907 Y165.239 E.0108
G1 X144.761 Y148.093 E.43202
G1 X144.761 Y147.487 E.0108
G1 X162.513 Y165.239 E.44729
G1 X163.119 Y165.239 E.0108
G1 X144.761 Y146.881 E.46256
G1 X144.761 Y146.275 E.0108
G1 X163.725 Y165.239 E.47783
G1 X164.332 Y165.239 E.01081
G1 X144.761 Y145.668 E.49312
G1 X144.661 Y144.631 F9000
;WIDTH:0.36146
G1 F2400
G1 X144.642 Y144.702 E.00104
