; generated by PrusaSlicer 2.9.4 on 2026-04-21 at 09:02:38 UTC

; 

; external perimeters extrusion width = 0.45mm
; perimeters extrusion width = 0.45mm
; infill extrusion width = 0.45mm
; solid infill extrusion width = 0.45mm
; top infill extrusion width = 0.40mm
; first layer extrusion width = 0.70mm

M104 S200 ; set temperature
;TYPE:Custom
G28 ; home all axes
G1 Z5 F5000 ; lift nozzle
M109 S200 ; set temperature and wait for it to be reached
G21 ; set units to millimeters
G90 ; use absolute coordinates
M82 ; use absolute distances for extrusion
G92 E0
; Filament gcode
M107
;LAYER_CHANGE
;Z:0.35
;HEIGHT:0.35
G1 E-2 F2400
G92 E0
G1 Z.35 F7800
G1 X85.225 Y85.871
G1 E2 F2400
;TYPE:Skirt/Brim
;WIDTH:0.7
G1 F1800
G1 X86.966 Y84.465 E2.20349
G1 X90 Y83.688 E2.48827
G1 X110 Y83.688 E4.30686
G1 X112.203 Y84.084 E4.51039
G1 X114.129 Y85.225 E4.71395
G1 X115.535 Y86.966 E4.91744
G1 X116.312 Y90 E5.20222
G1 X116.312 Y110 E7.02081
G1 X115.916 Y112.203 E7.22434
G1 X114.775 Y114.129 E7.4279
G1 X113.034 Y115.535 E7.63139
G1 X110 Y116.312 E7.91617
G1 X90 Y116.312 E9.73476
G1 X87.797 Y115.916 E9.93829
G1 X85.871 Y114.775 E10.14185
G1 X84.465 Y113.034 E10.34534
G1 X83.688 Y110 E10.63012
G1 X83.688 Y90 E12.44871
G1 X84.084 Y87.797 E12.65224
G1 X85.194 Y85.923 E12.85029
G1 E10.85029 F2400
G92 E0
G92 E0
G1 X108.4 Y108.4 F7800
G1 E2 F2400
;TYPE:Perimeter
;WIDTH:0.7
G1 F1800
G1 X91.6 Y108.4 E3.52762
G1 X91.6 Y91.6 E5.05524
G1 X108.4 Y91.6 E6.58286
G1 X108.4 Y108.34 E8.10502
G1 X109.025 Y109.025 F7800
G1 F1800
G1 X90.975 Y109.025 E9.7463
G1 X90.975 Y90.975 E11.38758
G1 X109.025 Y90.975 E13.02886
G1 X109.025 Y108.965 E14.66468
G1 X109.65 Y109.65 F7800
;TYPE:External perimeter
G1 F1800
G1 X90.35 Y109.65 E16.41962
G1 X90.35 Y90.35 E18.17456
G1 X109.65 Y90.35 E19.9295
G1 X109.65 Y109.59 E21.67898
G1 X109.254 Y109.649 F7800
G1 E19.67898 F2400
G92 E0
G1 X108.213 Y93.062 F7800
G1 E2 F2400
;TYPE:Solid infill
;WIDTH:0.705315
G1 F1800
G1 X107.22 Y92.068 E2.12884
G1 X106.328 Y92.068 E2.21064
G1 X107.932 Y93.672 E2.41866
G1 X107.932 Y94.563 E2.50037
G1 X105.437 Y92.068 E2.82394
G1 X104.546 Y92.068 E2.90565
G1 X107.932 Y95.454 E3.34477
G1 X107.932 Y96.345 E3.42648
G1 X103.655 Y92.068 E3.98115
G1 X102.763 Y92.068 E4.06295
G1 X107.932 Y97.237 E4.7333
G1 X107.932 Y98.128 E4.81501
G1 X101.872 Y92.068 E5.60092
G1 X100.981 Y92.068 E5.68263
G1 X107.932 Y99.019 E6.58409
G1 X107.932 Y99.91 E6.6658
G1 X100.09 Y92.068 E7.68281
G1 X99.198 Y92.068 E7.76461
G1 X107.932 Y100.802 E8.8973
G1 X107.932 Y101.693 E8.97901
G1 X98.307 Y92.068 E10.22725
G1 X97.416 Y92.068 E10.30896
G1 X107.932 Y102.584 E11.67275
G1 X107.932 Y103.475 E11.75446
G1 X96.525 Y92.068 E13.23381
G1 X95.633 Y92.068 E13.31561
G1 X107.932 Y104.367 E14.91064
G1 X107.932 Y105.258 E14.99235
G1 X94.742 Y92.068 E16.70293
G1 X93.851 Y92.068 E16.78464
G1 X107.932 Y106.149 E18.61077
G1 X107.932 Y107.04 E18.69248
G1 X92.96 Y92.068 E20.63416
G1 X92.068 Y92.068 E20.71596
G1 X107.931 Y107.932 E22.77326
G1 X107.04 Y107.932 E22.85497
G1 X92.068 Y92.96 E24.79665
G1 X92.068 Y93.851 E24.87836
G1 X106.149 Y107.932 E26.70449
G1 X105.258 Y107.932 E26.7862
G1 X92.068 Y94.742 E28.49678
G1 X92.068 Y95.633 E28.57849
G1 X104.367 Y107.932 E30.17352
G1 X103.475 Y107.932 E30.25532
G1 X92.068 Y96.525 E31.73467
G1 X92.068 Y97.416 E31.81638
G1 X102.584 Y107.932 E33.18017
G1 X101.693 Y107.932 E33.26188
G1 X92.068 Y98.307 E34.51012
G1 X92.068 Y99.198 E34.59183
G1 X100.802 Y107.932 E35.72452
G1 X99.91 Y107.932 E35.80632
G1 X92.068 Y100.09 E36.82333
G1 X92.068 Y100.981 E36.90504
G1 X99.019 Y107.932 E37.8065
G1 X98.128 Y107.932 E37.88821
G1 X92.068 Y101.872 E38.67412
G1 X92.068 Y102.763 E38.75583
G1 X97.237 Y107.932 E39.42618
G1 X96.345 Y107.932 E39.50798
G1 X92.068 Y103.655 E40.06265
G1 X92.068 Y104.546 E40.14436
G1 X95.454 Y107.932 E40.58348
G1 X94.563 Y107.932 E40.66519
G1 X92.068 Y105.437 E40.98876
G1 X92.068 Y106.328 E41.07047
G1 X93.672 Y107.932 E41.27849
G1 X92.78 Y107.932 E41.36029
G1 X91.787 Y106.938 E41.48913
;LAYER_CHANGE
;Z:0.55
;HEIGHT:0.2
G1 E39.48913 F2400
G92 E0
G1 Z.55 F7800
G1 X108.961 Y108.961
G1 E2 F2400
;TYPE:Perimeter
;WIDTH:0.449999
G1 F3600
G1 X91.039 Y108.961 E2.60664
G1 X91.039 Y91.039 E3.21328
G1 X108.961 Y91.039 E3.81992
G1 X108.961 Y108.901 E4.42453
G1 X109.368 Y109.368 F7800
G1 F3600
G1 X90.632 Y109.368 E5.05872
G1 X90.632 Y90.632 E5.69291
G1 X109.368 Y90.632 E6.3271
G1 X109.368 Y109.308 E6.95926
G1 X109.775 Y109.775 F7800
;TYPE:External perimeter
G1 F1800
G1 X90.225 Y109.775 E7.621
G1 X90.225 Y90.225 E8.28274
G1 X109.775 Y90.225 E8.94448
G1 X109.775 Y109.715 E9.60419
G1 X109.379 Y109.774 F7800
G1 E7.60419 F2400
G92 E0
G1 X91.455 Y91.377 F7800
G1 E2 F2400
;TYPE:Solid infill
;WIDTH:0.548766
G1 F1200
G1 X91.41 Y91.333 E2.00265
G1 X91.349 Y91.349 E2.0053
G1 X91.333 Y91.41 E2.00795
G1 X91.377 Y91.455 E2.0106
G1 X91.439 Y91.439 E2.01329
G1 X91.212 Y92.234 F7800
;WIDTH:0.38292
G1 F1200
G1 X91.141 Y92.215 E2.01537
G1 X91.16 Y92.286 E2.01745
G1 X91.201 Y92.275 E2.01865
;WIDTH:0.41646
G1 X91.273 Y92.182 E2.0223
;WIDTH:0.449999
G1 X91.344 Y92.089 E2.02626
G1 X92.089 Y91.344 E2.06192
G1 X92.182 Y91.273 E2.06588
;WIDTH:0.41646
G1 X92.275 Y91.201 E2.06953
;WIDTH:0.38292
G1 X92.234 Y91.212 E2.07073
G1 X92.215 Y91.141 E2.07281
G1 X92.286 Y91.16 E2.07489
;WIDTH:0.449999
G1 X92.664 Y91.344 E2.08912
G1 X91.344 Y92.664 E2.15231
G1 X91.344 Y93.24 E2.17181
G1 X93.24 Y91.344 E2.26257
G1 X93.816 Y91.344 E2.28207
G1 X91.344 Y93.816 E2.4004
G1 X91.344 Y94.392 E2.4199
G1 X94.392 Y91.344 E2.56581
G1 X94.967 Y91.344 E2.58527
G1 X91.344 Y94.967 E2.7587
G1 X91.344 Y95.543 E2.7782
G1 X95.543 Y91.344 E2.9792
G1 X96.119 Y91.344 E2.9987
G1 X91.344 Y96.119 E3.22728
G1 X91.344 Y96.694 E3.24674
G1 X96.694 Y91.344 E3.50284
G1 X97.27 Y91.344 E3.52234
G1 X91.344 Y97.27 E3.80601
G1 X91.344 Y97.846 E3.82551
G1 X97.846 Y91.344 E4.13676
G1 X98.421 Y91.344 E4.15622
G1 X91.344 Y98.421 E4.49499
G1 X91.344 Y98.997 E4.51449
G1 X98.997 Y91.344 E4.88083
G1 X99.573 Y91.344 E4.90033
G1 X91.344 Y99.573 E5.29425
G1 X91.344 Y100.149 E5.31375
G1 X100.149 Y91.344 E5.73524
G1 X100.724 Y91.344 E5.7547
G1 X91.344 Y100.724 E6.20371
G1 X91.344 Y101.3 E6.22321
G1 X101.3 Y91.344 E6.6998
G1 X101.876 Y91.344 E6.7193
G1 X91.344 Y101.876 E7.22346
G1 X91.344 Y102.451 E7.24292
G1 X102.451 Y91.344 E7.77461
G1 X103.027 Y91.344 E7.79411
G1 X91.344 Y103.027 E8.35337
G1 X91.344 Y103.603 E8.37287
G1 X103.603 Y91.344 E8.9597
G1 X104.178 Y91.344 E8.97916
G1 X91.344 Y104.178 E9.59352
G1 X91.344 Y104.754 E9.61302
G1 X104.754 Y91.344 E10.25495
G1 X105.33 Y91.344 E10.27445
G1 X91.344 Y105.33 E10.94395
G1 X91.344 Y105.906 E10.96345
G1 X105.906 Y91.344 E11.66052
G1 X106.481 Y91.344 E11.67998
G1 X91.344 Y106.481 E12.40458
G1 X91.344 Y107.057 E12.42408
G1 X107.057 Y91.344 E13.17625
G1 X107.633 Y91.344 E13.19575
G1 X91.344 Y107.633 E13.97549
G1 X91.344 Y108.208 E13.99495
G1 X108.208 Y91.344 E14.80222
G1 X108.812 Y91.218 E14.8231
;WIDTH:0.38292
G1 X108.741 Y91.199 E14.82518
G1 X108.76 Y91.27 E14.82726
G1 X108.801 Y91.259 E14.82846
;WIDTH:0.41646
G1 X108.728 Y91.366 E14.83248
;WIDTH:0.449999
G1 X108.656 Y91.473 E14.83685
G1 X91.473 Y108.656 E15.65939
G1 X91.366 Y108.728 E15.66376
;WIDTH:0.41646
G1 X91.259 Y108.801 E15.66778
;WIDTH:0.38292
G1 X91.218 Y108.812 E15.66898
G1 X91.199 Y108.741 E15.67106
G1 X91.27 Y108.76 E15.67314
;WIDTH:0.449999
G1 X92.049 Y108.656 E15.69974
G1 X108.656 Y92.049 E16.49471
G1 X108.656 Y92.624 E16.51417
G1 X92.624 Y108.656 E17.28161
G1 X93.2 Y108.656 E17.30111
G1 X108.656 Y93.2 E18.04098
G1 X108.656 Y93.776 E18.06048
G1 X93.776 Y108.656 E18.77278
G1 X94.351 Y108.656 E18.79224
G1 X108.656 Y94.351 E19.47701
G1 X108.656 Y94.927 E19.49651
G1 X94.927 Y108.656 E20.15371
G1 X95.503 Y108.656 E20.17321
G1 X108.656 Y95.503 E20.80284
G1 X108.656 Y96.078 E20.8223
G1 X96.078 Y108.656 E21.4244
G1 X96.654 Y108.656 E21.4439
G1 X108.656 Y96.654 E22.01843
G1 X108.656 Y97.23 E22.03793
G1 X97.23 Y108.656 E22.58489
G1 X97.806 Y108.656 E22.60439
G1 X108.656 Y97.806 E23.12377
G1 X108.656 Y98.381 E23.14323
G1 X98.381 Y108.656 E23.63509
G1 X98.957 Y108.656 E23.65459
G1 X108.656 Y98.957 E24.11888
G1 X108.656 Y99.533 E24.13838
G1 X99.533 Y108.656 E24.57509
G1 X100.108 Y108.656 E24.59455
G1 X108.656 Y100.108 E25.00374
G1 X108.656 Y100.684 E25.02324
G1 X100.684 Y108.656 E25.40485
G1 X101.26 Y108.656 E25.42435
G1 X108.656 Y101.26 E25.77839
G1 X108.656 Y101.835 E25.79785
G1 X101.835 Y108.656 E26.12437
G1 X102.411 Y108.656 E26.14387
G1 X108.656 Y102.411 E26.44281
G1 X108.656 Y102.987 E26.46231
G1 X102.987 Y108.656 E26.73368
G1 X103.563 Y108.656 E26.75318
G1 X108.656 Y103.563 E26.99698
G1 X108.656 Y104.138 E27.01644
G1 X104.138 Y108.656 E27.23271
G1 X104.714 Y108.656 E27.25221
G1 X108.656 Y104.714 E27.44091
G1 X108.656 Y105.29 E27.46041
G1 X105.29 Y108.656 E27.62154
G1 X105.865 Y108.656 E27.641
G1 X108.656 Y105.865 E27.7746
G1 X108.87 Y106.274 E27.79022
;WIDTH:0.38292
G1 X108.799 Y106.255 E27.7923
G1 X108.818 Y106.326 E27.79438
G1 X108.859 Y106.315 E27.79558
;WIDTH:0.41646
G1 X108.757 Y106.378 E27.7993
;WIDTH:0.449999
G1 X108.656 Y106.441 E27.80333
G1 X106.441 Y108.656 E27.90936
G1 X106.378 Y108.757 E27.91339
;WIDTH:0.41646
G1 X106.315 Y108.859 E27.91711
;WIDTH:0.38292
G1 X106.274 Y108.87 E27.91831
G1 X106.255 Y108.799 E27.92039
G1 X106.326 Y108.818 E27.92247
G1 E25.92247 F2400
G92 E0
G1 X108.512 Y107.161 F7800
G1 E2 F2400
;WIDTH:0.449999
G1 F1200
G1 X107.017 Y108.656 E2.07156
G1 X108.656 Y108.656 E2.12704
G1 X108.656 Y107.017 E2.18252
G1 X108.242 Y108.158 F7800
;WIDTH:0.59582
G1 F1200
G1 X108.193 Y108.109 E2.18571
G1 X108.127 Y108.127 E2.18886
G1 X108.109 Y108.193 E2.19201
G1 X108.158 Y108.242 E2.1952
G1 X108.224 Y108.224 E2.19835
;LAYER_CHANGE
;Z:0.75
;HEIGHT:0.2
G1 Z.75 F7800
G1 X108.961 Y108.961
;TYPE:Perimeter
;WIDTH:0.449999
G1 F3600
G1 X91.039 Y108.961 E2.80499
G1 X91.039 Y91.039 E3.41163
G1 X108.961 Y91.039 E4.01827
G1 X108.961 Y108.901 E4.62288
G1 X109.368 Y109.368 F7800
G1 F3600
G1 X90.632 Y109.368 E5.25707
G1 X90.632 Y90.632 E5.89126
G1 X109.368 Y90.632 E6.52545
G1 X109.368 Y109.308 E7.15761
G1 X109.775 Y109.775 F7800
;TYPE:External perimeter
G1 F1800
G1 X90.225 Y109.775 E7.81935
G1 X90.225 Y90.225 E8.48109
G1 X109.775 Y90.225 E9.14283
G1 X109.775 Y109.715 E9.80254
G1 X109.379 Y109.774 F7800
G1 E7.80254 F2400
G92 E0
G1 X91.377 Y108.545 F7800
G1 E2 F2400
;TYPE:Solid infill
;WIDTH:0.548766
G1 F1200
G1 X91.333 Y108.59 E2.00265
G1 X91.349 Y108.651 E2.0053
G1 X91.41 Y108.667 E2.00795
G1 X91.455 Y108.623 E2.0106
G1 X91.439 Y108.561 E2.01329
G1 X92.275 Y108.799 F7800
;WIDTH:0.38292
G1 F1200
G1 X92.286 Y108.84 E2.01449
G1 X92.215 Y108.859 E2.01657
G1 X92.234 Y108.788 E2.01865
;WIDTH:0.41646
G1 X92.161 Y108.722 E2.02171
;WIDTH:0.449999
G1 X91.344 Y107.911 E2.06068
G1 X91.273 Y107.818 E2.06464
;WIDTH:0.41646
G1 X91.201 Y107.725 E2.06829
;WIDTH:0.38292
G1 X91.212 Y107.766 E2.06949
G1 X91.141 Y107.785 E2.07157
G1 X91.16 Y107.714 E2.07365
;WIDTH:0.449999
G1 X91.344 Y107.336 E2.08788
G1 X92.664 Y108.656 E2.15107
G1 X93.24 Y108.656 E2.17057
G1 X91.344 Y106.76 E2.26133
G1 X91.344 Y106.184 E2.28083
G1 X93.816 Y108.656 E2.39916
G1 X94.392 Y108.656 E2.41866
G1 X91.344 Y105.608 E2.56457
G1 X91.344 Y105.033 E2.58403
G1 X94.967 Y108.656 E2.75746
G1 X95.543 Y108.656 E2.77696
G1 X91.344 Y104.457 E2.97796
G1 X91.344 Y103.881 E2.99746
G1 X96.119 Y108.656 E3.22604
G1 X96.694 Y108.656 E3.2455
G1 X91.344 Y103.306 E3.5016
G1 X91.344 Y102.73 E3.5211
G1 X97.27 Y108.656 E3.80477
G1 X97.846 Y108.656 E3.82427
G1 X91.344 Y102.154 E4.13552
G1 X91.344 Y101.579 E4.15498
G1 X98.421 Y108.656 E4.49375
G1 X98.997 Y108.656 E4.51325
G1 X91.344 Y101.003 E4.87959
G1 X91.344 Y100.427 E4.89909
G1 X99.573 Y108.656 E5.29301
G1 X100.149 Y108.656 E5.31251
G1 X91.344 Y99.851 E5.734
G1 X91.344 Y99.276 E5.75346
G1 X100.724 Y108.656 E6.20247
G1 X101.3 Y108.656 E6.22197
G1 X91.344 Y98.7 E6.69856
G1 X91.344 Y98.124 E6.71806
G1 X101.876 Y108.656 E7.22222
G1 X102.451 Y108.656 E7.24168
G1 X91.344 Y97.549 E7.77337
G1 X91.344 Y96.973 E7.79287
G1 X103.027 Y108.656 E8.35213
G1 X103.603 Y108.656 E8.37163
G1 X91.344 Y96.397 E8.95846
G1 X91.344 Y95.822 E8.97792
G1 X104.178 Y108.656 E9.59228
G1 X104.754 Y108.656 E9.61178
G1 X91.344 Y95.246 E10.25371
G1 X91.344 Y94.67 E10.27321
G1 X105.33 Y108.656 E10.94271
G1 X105.906 Y108.656 E10.96221
G1 X91.344 Y94.095 E11.65926
G1 X91.344 Y93.519 E11.67876
G1 X106.481 Y108.656 E12.40336
G1 X107.057 Y108.656 E12.42286
G1 X91.344 Y92.943 E13.17503
G1 X91.344 Y92.367 E13.19453
G1 X107.633 Y108.656 E13.97427
G1 X108.208 Y108.656 E13.99373
G1 X91.344 Y91.792 E14.801
G1 X91.218 Y91.188 E14.82188
;WIDTH:0.38292
G1 X91.199 Y91.259 E14.82396
G1 X91.27 Y91.24 E14.82604
G1 X91.259 Y91.199 E14.82724
;WIDTH:0.41646
G1 X91.366 Y91.272 E14.83126
;WIDTH:0.449999
G1 X91.473 Y91.344 E14.83563
G1 X108.656 Y108.527 E15.65817
G1 X108.728 Y108.634 E15.66254
;WIDTH:0.41646
G1 X108.801 Y108.741 E15.66656
;WIDTH:0.38292
G1 X108.812 Y108.782 E15.66776
G1 X108.741 Y108.801 E15.66984
G1 X108.76 Y108.73 E15.67192
;WIDTH:0.449999
G1 X108.656 Y107.951 E15.69852
G1 X92.049 Y91.344 E16.49349
G1 X92.624 Y91.344 E16.51295
G1 X108.656 Y107.376 E17.28039
G1 X108.656 Y106.8 E17.29989
G1 X93.2 Y91.344 E18.03976
G1 X93.776 Y91.344 E18.05926
G1 X108.656 Y106.224 E18.77156
G1 X108.656 Y105.649 E18.79102
G1 X94.351 Y91.344 E19.47579
G1 X94.927 Y91.344 E19.49529
G1 X108.656 Y105.073 E20.15249
G1 X108.656 Y104.497 E20.17199
G1 X95.503 Y91.344 E20.80162
G1 X96.078 Y91.344 E20.82108
G1 X108.656 Y103.922 E21.42318
G1 X108.656 Y103.346 E21.44268
G1 X96.654 Y91.344 E22.01721
G1 X97.23 Y91.344 E22.03671
G1 X108.656 Y102.77 E22.58367
G1 X108.656 Y102.194 E22.60317
G1 X97.806 Y91.344 E23.12255
G1 X98.381 Y91.344 E23.14201
G1 X108.656 Y101.619 E23.63387
G1 X108.656 Y101.043 E23.65337
G1 X98.957 Y91.344 E24.11766
G1 X99.533 Y91.344 E24.13716
G1 X108.656 Y100.467 E24.57387
G1 X108.656 Y99.892 E24.59333
G1 X100.108 Y91.344 E25.00252
G1 X100.684 Y91.344 E25.02202
G1 X108.656 Y99.316 E25.40363
G1 X108.656 Y98.74 E25.42313
G1 X101.26 Y91.344 E25.77717
G1 X101.835 Y91.344 E25.79663
G1 X108.656 Y98.165 E26.12315
G1 X108.656 Y97.589 E26.14265
G1 X102.411 Y91.344 E26.44159
G1 X102.987 Y91.344 E26.46109
G1 X108.656 Y97.013 E26.73246
G1 X108.656 Y96.437 E26.75196
G1 X103.563 Y91.344 E26.99576
G1 X104.138 Y91.344 E27.01522
G1 X108.656 Y95.862 E27.23149
G1 X108.656 Y95.286 E27.25099
G1 X104.714 Y91.344 E27.43969
G1 X105.29 Y91.344 E27.45919
G1 X108.656 Y94.71 E27.62032
G1 X108.656 Y94.135 E27.63978
G1 X105.865 Y91.344 E27.77338
G1 X106.274 Y91.13 E27.789
;WIDTH:0.38292
G1 X106.255 Y91.201 E27.79108
G1 X106.326 Y91.182 E27.79316
G1 X106.315 Y91.141 E27.79436
;WIDTH:0.41646
G1 X106.378 Y91.243 E27.79808
;WIDTH:0.449999
G1 X106.441 Y91.344 E27.80211
G1 X108.656 Y93.559 E27.90814
G1 X108.757 Y93.622 E27.91217
;WIDTH:0.41646
G1 X108.859 Y93.685 E27.91589
;WIDTH:0.38292
G1 X108.87 Y93.726 E27.91709
G1 X108.799 Y93.745 E27.91917
G1 X108.818 Y93.674 E27.92125
G1 E25.92125 F2400
G92 E0
G1 X107.161 Y91.488 F7800
G1 E2 F2400
;WIDTH:0.449999
G1 F1200
G1 X108.656 Y92.983 E2.07156
G1 X108.656 Y91.344 E2.12704
G1 X107.017 Y91.344 E2.18252
G1 X108.158 Y91.758 F7800
;WIDTH:0.595822
G1 F1200
G1 X108.109 Y91.807 E2.18571
G1 X108.127 Y91.873 E2.18886
G1 X108.193 Y91.891 E2.19201
G1 X108.242 Y91.842 E2.1952
G1 X108.224 Y91.776 E2.19835
M106 S244.8
;LAYER_CHANGE
;Z:0.95
;HEIGHT:0.2
G1 E.19835 F2400
G92 E0
G1 Z.95 F7800
G1 X108.961 Y108.961
G1 E2 F2400
;TYPE:Perimeter
;WIDTH:0.449999
G1 F3600
G1 X91.039 Y108.961 E2.60664
G1 X91.039 Y91.039 E3.21328
G1 X108.961 Y91.039 E3.81992
G1 X108.961 Y108.901 E4.42453
G1 X109.368 Y109.368 F7800
G1 F3600
G1 X90.632 Y109.368 E5.05872
G1 X90.632 Y90.632 E5.69291
G1 X109.368 Y90.632 E6.3271
G1 X109.368 Y109.308 E6.95926
G1 X109.775 Y109.775 F7800
;TYPE:External perimeter
G1 F1800
G1 X90.225 Y109.775 E7.621
G1 X90.225 Y90.225 E8.28274
G1 X109.775 Y90.225 E8.94448
G1 X109.775 Y109.715 E9.60419
G1 X109.379 Y109.774 F7800
G1 E7.60419 F2400
G92 E0
G1 X104.002 Y108.656 F7800
G1 E2 F2400
;TYPE:Internal infill
;WIDTH:0.45
G1 F4800
G1 X108.641 Y91.344 E2.60666
