; generated by PrusaSlicer 2.9.4 on 2026-04-21 at 08:53:36 UTC

; 

; external perimeters extrusion width = 0.45mm
; perimeters extrusion width = 0.45mm
; infill extrusion width = 0.45mm
; solid infill extrusion width = 0.45mm
; top infill extrusion width = 0.40mm
; support material extrusion width = 0.38mm
; first layer extrusion width = 0.42mm

M201 X500 Y500 Z100 E5000 ; sets maximum accelerations, mm/sec^2
M203 X500 Y500 Z10 E60 ; sets maximum feedrates, mm / sec
M204 S500 T1000 ; sets acceleration (S) and retract acceleration (R), mm/sec^2
M205 X8.00 Y8.00 Z0.40 E5.00 ; sets the jerk limits, mm/sec
M205 S0 T0 ; sets the minimum extruding and travel feed rate, mm/sec
;TYPE:Custom
G90 ; use absolute coordinates
M83 ; extruder relative mode
M104 S150 ; set temporary nozzle temp to prevent oozing during homing and auto bed leveling
M140 S55 ; set final bed temp
M190 S55 ; wait for bed temp to stabilize
G28 ; home all axis
G29 ; auto bed levelling
G1 Z50 F240
G1 X2.0 Y10 F3000
M104 S210 ; set final nozzle temp
M109 S210 ; wait for nozzle temp to stabilize
G1 Z0.28 F240
G92 E0
G1 X2.0 Y140 E10 F1500 ; prime the nozzle
G1 X2.3 Y140 F5000
G92 E0
G1 X2.3 Y10 E10 F1200 ; prime the nozzle
G92 E0
G21 ; set units to millimeters
G90 ; use absolute coordinates
M83 ; use relative distances for extrusion
; Filament gcode
M107
;LAYER_CHANGE
;Z:0.2
;HEIGHT:0.2
G1 E-6 F3600
G1 Z.2 F9000
G1 X146.064 Y146.064
G1 E6 F2400
M204 S500
;TYPE:Perimeter
;WIDTH:0.419999
G1 F1200
G1 X163.936 Y146.064 E.56036
G1 X163.936 Y163.936 E.56036
G1 X146.064 Y163.936 E.56036
G1 X146.064 Y146.124 E.55848
G1 X145.687 Y145.687 F9000
G1 F1200
G1 X164.313 Y145.687 E.584
G1 X164.313 Y164.313 E.584
G1 X145.687 Y164.313 E.584
G1 X145.687 Y145.747 E.58212
G1 X145.31 Y145.31 F9000
;TYPE:External perimeter
G1 F1200
G1 X164.69 Y145.31 E.60765
G1 X164.69 Y164.69 E.60765
G1 X145.31 Y164.69 E.60765
G1 X145.31 Y145.37 E.60576
G1 E-4.2 F3600
;WIPE_START
G1 F7200
G1 X145.31 Y145.31 E-.0285
G1 X149.039 Y145.31 E-1.7715
;WIPE_END
G1 X163.823 Y146.943 F9000
G1 E6 F2400
;TYPE:Solid infill
;WIDTH:0.421825
G1 F1200
G1 X163.226 Y146.347 E.02658
G1 X162.69 Y146.347 E.01689
G1 X163.653 Y147.31 E.04291
G1 X163.653 Y147.845 E.01686
G1 X162.155 Y146.347 E.06675
G1 X161.619 Y146.347 E.01689
G1 X163.653 Y148.381 E.09063
G1 X163.653 Y148.917 E.01689
G1 X161.083 Y146.347 E.11451
G1 X160.547 Y146.347 E.01689
G1 X163.653 Y149.453 E.13839
G1 X163.653 Y149.989 E.01689
G1 X160.011 Y146.347 E.16227
G1 X159.475 Y146.347 E.01689
G1 X163.653 Y150.525 E.18616
G1 X163.653 Y151.061 E.01689
G1 X158.939 Y146.347 E.21004
G1 X158.404 Y146.347 E.01686
G1 X163.653 Y151.596 E.23388
G1 X163.653 Y152.132 E.01689
G1 X157.868 Y146.347 E.25776
G1 X157.332 Y146.347 E.01689
G1 X163.653 Y152.668 E.28164
G1 X163.653 Y153.204 E.01689
G1 X156.796 Y146.347 E.30552
G1 X156.26 Y146.347 E.01689
G1 X163.653 Y153.74 E.3294
G1 X163.653 Y154.276 E.01689
G1 X155.724 Y146.347 E.35329
G1 X155.188 Y146.347 E.01689
G1 X163.653 Y154.812 E.37717
G1 X163.653 Y155.347 E.01686
G1 X154.653 Y146.347 E.40101
G1 X154.117 Y146.347 E.01689
G1 X163.653 Y155.883 E.42489
G1 X163.653 Y156.419 E.01689
G1 X153.581 Y146.347 E.44877
G1 X153.045 Y146.347 E.01689
G1 X163.653 Y156.955 E.47265
G1 X163.653 Y157.491 E.01689
G1 X152.509 Y146.347 E.49654
G1 X151.973 Y146.347 E.01689
G1 X163.653 Y158.027 E.52042
G1 X163.653 Y158.562 E.01686
G1 X151.438 Y146.347 E.54426
G1 X150.902 Y146.347 E.01689
G1 X163.653 Y159.098 E.56814
G1 X163.653 Y159.634 E.01689
G1 X150.366 Y146.347 E.59202
G1 X149.83 Y146.347 E.01689
G1 X163.653 Y160.17 E.6159
G1 X163.653 Y160.706 E.01689
G1 X149.294 Y146.347 E.63978
G1 X148.758 Y146.347 E.01689
G1 X163.653 Y161.242 E.66367
G1 X163.653 Y161.778 E.01689
G1 X148.222 Y146.347 E.68755
G1 X147.687 Y146.347 E.01686
G1 X163.653 Y162.313 E.71139
G1 X163.653 Y162.849 E.01689
G1 X147.151 Y146.347 E.73527
G1 X146.615 Y146.347 E.01689
G1 X163.653 Y163.385 E.75915
G1 X163.653 Y163.653 E.00844
G1 X163.385 Y163.653 E.00844
G1 X146.347 Y146.615 E.75915
G1 X146.347 Y147.151 E.01689
G1 X162.849 Y163.653 E.73527
G1 X162.313 Y163.653 E.01689
G1 X146.347 Y147.687 E.71139
G1 X146.347 Y148.223 E.01689
G1 X161.777 Y163.653 E.6875
G1 X161.242 Y163.653 E.01686
G1 X146.347 Y148.758 E.66367
G1 X146.347 Y149.294 E.01689
G1 X160.706 Y163.653 E.63978
G1 X160.17 Y163.653 E.01689
G1 X146.347 Y149.83 E.6159
G1 X146.347 Y150.366 E.01689
G1 X159.634 Y163.653 E.59202
G1 X159.098 Y163.653 E.01689
G1 X146.347 Y150.902 E.56814
G1 X146.347 Y151.438 E.01689
G1 X158.562 Y163.653 E.54426
G1 X158.027 Y163.653 E.01686
G1 X146.347 Y151.973 E.52042
G1 X146.347 Y152.509 E.01689
G1 X157.491 Y163.653 E.49654
G1 X156.955 Y163.653 E.01689
G1 X146.347 Y153.045 E.47265
G1 X146.347 Y153.581 E.01689
G1 X156.419 Y163.653 E.44877
G1 X155.883 Y163.653 E.01689
G1 X146.347 Y154.117 E.42489
G1 X146.347 Y154.653 E.01689
G1 X155.347 Y163.653 E.40101
G1 X154.811 Y163.653 E.01689
G1 X146.347 Y155.189 E.37712
G1 X146.347 Y155.724 E.01686
G1 X154.276 Y163.653 E.35329
G1 X153.74 Y163.653 E.01689
G1 X146.347 Y156.26 E.3294
G1 X146.347 Y156.796 E.01689
G1 X153.204 Y163.653 E.30552
G1 X152.668 Y163.653 E.01689
G1 X146.347 Y157.332 E.28164
G1 X146.347 Y157.868 E.01689
G1 X152.132 Y163.653 E.25776
G1 X151.596 Y163.653 E.01689
G1 X146.347 Y158.404 E.23388
G1 X146.347 Y158.94 E.01689
G1 X151.06 Y163.653 E.20999
G1 X150.525 Y163.653 E.01686
G1 X146.347 Y159.475 E.18616
G1 X146.347 Y160.011 E.01689
G1 X149.989 Y163.653 E.16227
G1 X149.453 Y163.653 E.01689
G1 X146.347 Y160.547 E.13839
G1 X146.347 Y161.083 E.01689
G1 X148.917 Y163.653 E.11451
G1 X148.381 Y163.653 E.01689
G1 X146.347 Y161.619 E.09063
G1 X146.347 Y162.155 E.01689
G1 X147.845 Y163.653 E.06675
G1 X147.309 Y163.653 E.01689
G1 X146.347 Y162.691 E.04286
G1 X146.347 Y163.226 E.01686
G1 X146.943 Y163.823 E.02658
M106 S255
;LAYER_CHANGE
;Z:0.4
;HEIGHT:0.2
;BEFORE_LAYER_CHANGE
G92 E0
;0.4


G1 E-4.2 F3600
;WIPE_START
G1 F7200
G1 X146.347 Y163.226 E-.4007
G1 X146.347 Y162.691 E-.25412
G1 X147.309 Y163.653 E-.64622
G1 X147.845 Y163.653 E-.2546
G1 X147.481 Y163.289 E-.24436
;WIPE_END
G1 Z.4 F9000
;AFTER_LAYER_CHANGE
;0.4
G1 X146.039 Y163.961
G1 E6 F2400
;TYPE:Perimeter
;WIDTH:0.449999
G1 X146.039 Y146.039 E.60664
G1 X163.961 Y146.039 E.60664
G1 X163.961 Y163.961 E.60664
G1 X146.099 Y163.961 E.60461
G1 X145.632 Y164.368 F9000
G1 F2400
G1 X145.632 Y145.632 E.63419
G1 X164.368 Y145.632 E.63419
G1 X164.368 Y164.368 E.63419
G1 X145.692 Y164.368 E.63216
G1 X145.225 Y164.775 F9000
;TYPE:External perimeter
G1 F1500
G1 X145.225 Y145.225 E.66174
G1 X164.775 Y145.225 E.66174
G1 X164.775 Y164.775 E.66174
G1 X145.285 Y164.775 E.65971
G1 E-4.2 F3600
;WIPE_START
G1 F7200
G1 X145.225 Y164.775 E-.0285
G1 X145.225 Y161.046 E-1.7715
;WIPE_END
G1 X146.455 Y146.377 F9000
G1 E6 F2400
;TYPE:Solid infill
;WIDTH:0.548766
G1 X146.41 Y146.333 E.00265
G1 X146.349 Y146.349 E.00265
G1 X146.333 Y146.41 E.00265
G1 X146.377 Y146.455 E.00265
G1 X146.439 Y146.439 E.00269
G1 X146.212 Y147.234 F9000
;WIDTH:0.38292
G1 F2400
G1 X146.141 Y147.215 E.00208
G1 X146.16 Y147.286 E.00208
G1 X146.201 Y147.275 E.0012
;WIDTH:0.41646
G1 X146.273 Y147.182 E.00365
;WIDTH:0.449999
G1 X146.344 Y147.089 E.00396
G1 X147.089 Y146.344 E.03566
G1 X147.182 Y146.273 E.00396
;WIDTH:0.41646
G1 X147.275 Y146.201 E.00365
;WIDTH:0.38292
G1 X147.234 Y146.212 E.0012
G1 X147.215 Y146.141 E.00208
G1 X147.286 Y146.16 E.00208
;WIDTH:0.449999
G1 X147.664 Y146.344 E.01423
G1 X146.344 Y147.664 E.06319
G1 X146.344 Y148.24 E.0195
G1 X148.24 Y146.344 E.09076
G1 X148.816 Y146.344 E.0195
G1 X146.344 Y148.816 E.11833
G1 X146.344 Y149.392 E.0195
G1 X149.392 Y146.344 E.14591
G1 X149.967 Y146.344 E.01946
G1 X146.344 Y149.967 E.17343
G1 X146.344 Y150.543 E.0195
G1 X150.543 Y146.344 E.201
G1 X151.119 Y146.344 E.0195
G1 X146.344 Y151.119 E.22858
G1 X146.344 Y151.694 E.01946
G1 X151.694 Y146.344 E.2561
G1 X152.27 Y146.344 E.0195
G1 X146.344 Y152.27 E.28367
G1 X146.344 Y152.846 E.0195
G1 X152.846 Y146.344 E.31125
G1 X153.421 Y146.344 E.01946
G1 X146.344 Y153.421 E.33877
G1 X146.344 Y153.997 E.0195
G1 X153.997 Y146.344 E.36634
G1 X154.573 Y146.344 E.0195
G1 X146.344 Y154.573 E.39392
G1 X146.344 Y155.149 E.0195
G1 X155.149 Y146.344 E.42149
G1 X155.724 Y146.344 E.01946
G1 X146.344 Y155.724 E.44901
G1 X146.344 Y156.3 E.0195
G1 X156.3 Y146.344 E.47659
G1 X156.876 Y146.344 E.0195
G1 X146.344 Y156.876 E.50416
G1 X146.344 Y157.451 E.01946
G1 X157.451 Y146.344 E.53169
G1 X158.027 Y146.344 E.0195
G1 X146.344 Y158.027 E.55926
G1 X146.344 Y158.603 E.0195
G1 X158.603 Y146.344 E.58683
G1 X159.178 Y146.344 E.01946
G1 X146.344 Y159.178 E.61436
G1 X146.344 Y159.754 E.0195
G1 X159.754 Y146.344 E.64193
G1 X160.33 Y146.344 E.0195
G1 X146.344 Y160.33 E.6695
G1 X146.344 Y160.906 E.0195
G1 X160.906 Y146.344 E.69707
G1 X161.481 Y146.344 E.01946
G1 X146.344 Y161.481 E.7246
G1 X146.344 Y162.057 E.0195
G1 X162.057 Y146.344 E.75217
G1 X162.633 Y146.344 E.0195
G1 X146.344 Y162.633 E.77974
G1 X146.344 Y163.208 E.01946
G1 X163.208 Y146.344 E.80727
G1 X163.812 Y146.218 E.02088
;WIDTH:0.38292
G1 X163.741 Y146.199 E.00208
G1 X163.76 Y146.27 E.00208
G1 X163.801 Y146.259 E.0012
;WIDTH:0.41646
G1 X163.728 Y146.366 E.00402
;WIDTH:0.449999
G1 X163.656 Y146.473 E.00437
G1 X146.473 Y163.656 E.82254
G1 X146.366 Y163.728 E.00437
;WIDTH:0.41646
G1 X146.259 Y163.801 E.00402
;WIDTH:0.38292
G1 X146.218 Y163.812 E.0012
G1 X146.199 Y163.741 E.00208
G1 X146.27 Y163.76 E.00208
;WIDTH:0.449999
G1 X147.049 Y163.656 E.0266
G1 X163.656 Y147.049 E.79497
G1 X163.656 Y147.624 E.01946
G1 X147.624 Y163.656 E.76744
G1 X148.2 Y163.656 E.0195
G1 X163.656 Y148.2 E.73987
G1 X163.656 Y148.776 E.0195
G1 X148.776 Y163.656 E.7123
G1 X149.351 Y163.656 E.01946
G1 X163.656 Y149.351 E.68477
G1 X163.656 Y149.927 E.0195
G1 X149.927 Y163.656 E.6572
G1 X150.503 Y163.656 E.0195
G1 X163.656 Y150.503 E.62963
G1 X163.656 Y151.078 E.01946
G1 X151.078 Y163.656 E.6021
G1 X151.654 Y163.656 E.0195
G1 X163.656 Y151.654 E.57453
G1 X163.656 Y152.23 E.0195
G1 X152.23 Y163.656 E.54696
G1 X152.806 Y163.656 E.0195
G1 X163.656 Y152.806 E.51938
G1 X163.656 Y153.381 E.01946
G1 X153.381 Y163.656 E.49186
G1 X153.957 Y163.656 E.0195
G1 X163.656 Y153.957 E.46429
G1 X163.656 Y154.533 E.0195
G1 X154.533 Y163.656 E.43671
G1 X155.108 Y163.656 E.01946
G1 X163.656 Y155.108 E.40919
G1 X163.656 Y155.684 E.0195
G1 X155.684 Y163.656 E.38161
G1 X156.26 Y163.656 E.0195
G1 X163.656 Y156.26 E.35404
G1 X163.656 Y156.835 E.01946
G1 X156.835 Y163.656 E.32652
G1 X157.411 Y163.656 E.0195
G1 X163.656 Y157.411 E.29894
G1 X163.656 Y157.987 E.0195
G1 X157.987 Y163.656 E.27137
G1 X158.563 Y163.656 E.0195
G1 X163.656 Y158.563 E.2438
G1 X163.656 Y159.138 E.01946
G1 X159.138 Y163.656 E.21627
G1 X159.714 Y163.656 E.0195
G1 X163.656 Y159.714 E.1887
G1 X163.656 Y160.29 E.0195
G1 X160.29 Y163.656 E.16113
G1 X160.865 Y163.656 E.01946
G1 X163.656 Y160.865 E.1336
G1 X163.87 Y161.274 E.01562
;WIDTH:0.38292
G1 X163.799 Y161.255 E.00208
G1 X163.818 Y161.326 E.00208
G1 X163.859 Y161.315 E.0012
;WIDTH:0.41646
G1 X163.757 Y161.378 E.00372
;WIDTH:0.449999
G1 X163.656 Y161.441 E.00403
G1 X161.441 Y163.656 E.10603
G1 X161.378 Y163.757 E.00403
;WIDTH:0.41646
G1 X161.315 Y163.859 E.00372
;WIDTH:0.38292
G1 X161.274 Y163.87 E.0012
G1 X161.255 Y163.799 E.00208
G1 X161.326 Y163.818 E.00208
G1 E-4.2 F3600
;WIPE_START
G1 F7200
G1 X161.255 Y163.799 E-.03491
G1 X161.274 Y163.87 E-.03491
G1 X161.315 Y163.859 E-.02016
G1 X161.378 Y163.757 E-.05695
G1 X161.441 Y163.656 E-.05654
G1 X163.656 Y161.441 E-1.48793
G1 X163.757 Y161.378 E-.05654
G1 X163.851 Y161.32 E-.05206
;WIPE_END
G1 X163.512 Y162.161 F9000
G1 E6 F2400
;WIDTH:0.449999
G1 X162.017 Y163.656 E.07156
G1 X163.656 Y163.656 E.05548
G1 X163.656 Y162.017 E.05548
G1 X163.242 Y163.158 F9000
;WIDTH:0.595824
G1 F2400
G1 X163.193 Y163.109 E.00319
G1 X163.127 Y163.127 E.00315
G1 X163.109 Y163.193 E.00315
G1 X163.158 Y163.242 E.00319
G1 X163.224 Y163.224 E.00315
;LAYER_CHANGE
;Z:0.6
;HEIGHT:0.2
;BEFORE_LAYER_CHANGE
G92 E0
;0.6


G1 E-4.2 F3600
;WIPE_START
G1 F7200
G1 X163.158 Y163.242 E-.03249
G1 X163.109 Y163.193 E-.03292
G1 X163.127 Y163.127 E-.03249
G1 X163.193 Y163.109 E-.03249
G1 X163.242 Y163.158 E-.03292
;WIPE_END
G1 E-1.63669 F3600
G1 Z.6 F9000
;AFTER_LAYER_CHANGE
;0.6
G1 X163.961 Y163.961
G1 E6 F2400
;TYPE:Perimeter
;WIDTH:0.449999
G1 X146.039 Y163.961 E.60664
G1 X146.039 Y146.039 E.60664
G1 X163.961 Y146.039 E.60664
G1 X163.961 Y163.901 E.60461
G1 X164.368 Y164.368 F9000
G1 F2400
G1 X145.632 Y164.368 E.63419
G1 X145.632 Y145.632 E.63419
G1 X164.368 Y145.632 E.63419
G1 X164.368 Y164.308 E.63216
G1 X164.775 Y164.775 F9000
;TYPE:External perimeter
G1 F1500
G1 X145.225 Y164.775 E.66174
G1 X145.225 Y145.225 E.66174
G1 X164.775 Y145.225 E.66174
G1 X164.775 Y164.715 E.65971
G1 E-4.2 F3600
;WIPE_START
G1 F7200
G1 X164.775 Y164.775 E-.0285
G1 X161.046 Y164.775 E-1.7715
;WIPE_END
G1 X146.377 Y163.545 F9000
G1 E6 F2400
;TYPE:Solid infill
;WIDTH:0.548766
G1 X146.333 Y163.59 E.00265
G1 X146.349 Y163.651 E.00265
G1 X146.41 Y163.667 E.00265
G1 X146.455 Y163.623 E.00265
G1 X146.439 Y163.561 E.00269
G1 X147.234 Y163.788 F9000
;WIDTH:0.38292
G1 F2400
G1 X147.215 Y163.859 E.00208
G1 X147.286 Y163.84 E.00208
G1 X147.275 Y163.799 E.0012
;WIDTH:0.41646
G1 X147.182 Y163.727 E.00365
;WIDTH:0.449999
G1 X147.089 Y163.656 E.00396
G1 X146.344 Y162.911 E.03566
G1 X146.273 Y162.818 E.00396
;WIDTH:0.41646
G1 X146.201 Y162.725 E.00365
;WIDTH:0.38292
G1 X146.212 Y162.766 E.0012
G1 X146.141 Y162.785 E.00208
G1 X146.16 Y162.714 E.00208
;WIDTH:0.449999
G1 X146.344 Y162.336 E.01423
G1 X147.664 Y163.656 E.06319
G1 X148.24 Y163.656 E.0195
G1 X146.344 Y161.76 E.09076
G1 X146.344 Y161.184 E.0195
G1 X148.816 Y163.656 E.11833
G1 X149.392 Y163.656 E.0195
G1 X146.344 Y160.608 E.14591
G1 X146.344 Y160.033 E.01946
G1 X149.967 Y163.656 E.17343
G1 X150.543 Y163.656 E.0195
G1 X146.344 Y159.457 E.201
G1 X146.344 Y158.881 E.0195
G1 X151.119 Y163.656 E.22858
G1 X151.694 Y163.656 E.01946
G1 X146.344 Y158.306 E.2561
G1 X146.344 Y157.73 E.0195
G1 X152.27 Y163.656 E.28367
G1 X152.846 Y163.656 E.0195
G1 X146.344 Y157.154 E.31125
G1 X146.344 Y156.579 E.01946
G1 X153.421 Y163.656 E.33877
G1 X153.997 Y163.656 E.0195
G1 X146.344 Y156.003 E.36634
G1 X146.344 Y155.427 E.0195
G1 X154.573 Y163.656 E.39392
G1 X155.149 Y163.656 E.0195
G1 X146.344 Y154.851 E.42149
G1 X146.344 Y154.276 E.01946
G1 X155.724 Y163.656 E.44901
G1 X156.3 Y163.656 E.0195
G1 X146.344 Y153.7 E.47659
G1 X146.344 Y153.124 E.0195
G1 X156.876 Y163.656 E.50416
G1 X157.451 Y163.656 E.01946
G1 X146.344 Y152.549 E.53169
G1 X146.344 Y151.973 E.0195
G1 X158.027 Y163.656 E.55926
G1 X158.603 Y163.656 E.0195
G1 X146.344 Y151.397 E.58683
G1 X146.344 Y150.822 E.01946
G1 X159.178 Y163.656 E.61436
G1 X159.754 Y163.656 E.0195
G1 X146.344 Y150.246 E.64193
G1 X146.344 Y149.67 E.0195
G1 X160.33 Y163.656 E.6695
G1 X160.906 Y163.656 E.0195
G1 X146.344 Y149.095 E.69705
G1 X146.344 Y148.519 E.0195
G1 X161.481 Y163.656 E.7246
G1 X162.057 Y163.656 E.0195
G1 X146.344 Y147.943 E.75217
G1 X146.344 Y147.367 E.0195
G1 X162.633 Y163.656 E.77974
G1 X163.208 Y163.656 E.01946
G1 X146.344 Y146.792 E.80727
G1 X146.218 Y146.188 E.02088
;WIDTH:0.38292
G1 X146.199 Y146.259 E.00208
G1 X146.27 Y146.24 E.00208
G1 X146.259 Y146.199 E.0012
;WIDTH:0.41646
G1 X146.366 Y146.272 E.00402
;WIDTH:0.449999
G1 X146.473 Y146.344 E.00437
G1 X163.656 Y163.527 E.82254
G1 X163.728 Y163.634 E.00437
;WIDTH:0.41646
G1 X163.801 Y163.741 E.00402
;WIDTH:0.38292
G1 X163.812 Y163.782 E.0012
G1 X163.741 Y163.801 E.00208
G1 X163.76 Y163.73 E.00208
;WIDTH:0.449999
G1 X163.656 Y162.951 E.0266
G1 X147.049 Y146.344 E.79497
G1 X147.624 Y146.344 E.01946
G1 X163.656 Y162.376 E.76744
G1 X163.656 Y161.8 E.0195
G1 X148.2 Y146.344 E.73987
G1 X148.776 Y146.344 E.0195
G1 X163.656 Y161.224 E.7123
G1 X163.656 Y160.649 E.01946
G1 X149.351 Y146.344 E.68477
G1 X149.927 Y146.344 E.0195
G1 X163.656 Y160.073 E.6572
G1 X163.656 Y159.497 E.0195
G1 X150.503 Y146.344 E.62963
G1 X151.078 Y146.344 E.01946
G1 X163.656 Y158.922 E.6021
G1 X163.656 Y158.346 E.0195
G1 X151.654 Y146.344 E.57453
